www/assets/icons/confirmation_number.svg

<svg xmlns="http://www.w3.org/2000/svg" width="24" height="24" viewBox="0 0 24 24" fill='currentColor'><path d="M22 10V6a2 2 0 0 0-2-2H4c-1.1 0-1.99.89-1.99 2v4c1.1 0 1.99.9 1.99 2a2 2 0 0 1-2 2v4c0 1.1.9 2 2 2h16c1.1 0 2-.9 2-2v-4c-1.1 0-2-.9-2-2s.9-2 2-2m-9 7.5h-2v-2h2zm0-4.5h-2v-2h2zm0-4.5h-2v-2h2z"/></svg>

<svg width="24" height="24" viewBox="0 0 24 24" xmlns="http://www.w3.org/2000/svg" fill='currentColor'><path d="M22 10V6C22 4.89 21.1 4 20 4H4C2.9 4 2.01 4.89 2.01 6V10C3.11 10 4 10.9 4 12C4 13.1 3.11 14 2 14V18C2 19.1 2.9 20 4 20H20C21.1 20 22 19.1 22 18V14C20.9 14 20 13.1 20 12C20 10.9 20.9 10 22 10ZM13 17.5H11V15.5H13V17.5ZM13 13H11V11H13V13ZM13 8.5H11V6.5H13V8.5Z"/></svg>
